public/common/medium_white_we.svg

<svg width="148" height="94" viewBox="0 0 148 94" fill="none" xmlns="http://www.w3.org/2000/svg">
<g id="Color=green">
<g id="Icon">
<path d="M15.9997 77.8581C7.16283 77.8581 0 70.7095 0 61.8901L0 16.6225C0 7.80318 7.16283 0.654541 15.9997 0.654541L131.637 0.654541C140.474 0.654541 147.636 7.80318 147.636 16.6225V77.8581H15.9997Z" fill="white"/>
<path d="M18.4144 18.101H29.0752L37.805 42.7516L47.1984 18.101H53.719L62.9412 42.4739L71.6796 18.101H82.4089L66.5676 61.4287H59.6659L50.4095 36.7396L40.8748 61.4287H34.0502L18.4144 18.101Z" fill="#34D186"/>
<path d="M132.073 42.9097L97.0813 42.9097C97.5865 45.9905 98.9352 48.4389 101.132 50.2549C103.324 52.0752 106.124 52.981 109.532 52.981C113.603 52.981 117.097 51.5624 120.025 48.7209L129.201 53.0238C126.914 56.2627 124.174 58.6598 120.98 60.2109C117.786 61.7662 113.997 62.5396 109.609 62.5396C102.797 62.5396 97.2526 60.3946 92.9711 56.1088C88.6897 51.8231 86.549 46.452 86.549 39.9998C86.549 33.3896 88.6854 27.8988 92.954 23.5319C97.2226 19.1649 102.574 16.9815 109.014 16.9815C115.851 16.9815 121.408 19.1649 125.694 23.5319C129.976 27.8988 132.116 33.6673 132.116 40.833L132.073 42.9097ZM121.181 34.351C120.462 31.9368 119.045 29.9712 116.926 28.4586C114.806 26.946 112.349 26.1897 109.553 26.1897C106.518 26.1897 103.85 27.04 101.56 28.7363C100.121 29.8003 98.7896 31.6719 97.5608 34.351H121.181Z" fill="#34D186"/>
<path d="M141.989 83.0797C143.376 83.0797 144.562 83.5796 145.556 84.5837C146.549 85.5836 147.041 86.7971 147.041 88.2243C147.041 89.6301 146.549 90.8308 145.568 91.8221C144.588 92.8134 143.415 93.3091 142.049 93.3091C140.645 93.3091 139.446 92.8049 138.453 91.7922C137.459 90.7795 136.967 89.5532 136.967 88.1089C136.967 86.7202 137.455 85.5366 138.44 84.5538C139.42 83.5711 140.602 83.0797 141.989 83.0797Z" fill="white"/>
</g>
</g>
</svg>

<svg width="148" height="94" fill="none" xmlns="http://www.w3.org/2000/svg"><path d="M16 77.858c-8.837 0-16-7.148-16-15.968V16.622C0 7.803 7.163.655 16 .655h115.637c8.837 0 15.999 7.148 15.999 15.967v61.236H16z" fill="#fff"/><path d="M18.414 18.101h10.661l8.73 24.65 9.393-24.65h6.521l9.222 24.373L71.68 18.1h10.729L66.568 61.429h-6.902l-9.256-24.69-9.535 24.69H34.05L18.414 18.1zM132.073 42.91H97.081c.505 3.08 1.854 5.529 4.051 7.345 2.192 1.82 4.992 2.726 8.4 2.726 4.071 0 7.565-1.419 10.493-4.26l9.176 4.303c-2.287 3.239-5.027 5.636-8.221 7.187-3.194 1.555-6.983 2.329-11.371 2.329-6.812 0-12.356-2.145-16.638-6.431-4.281-4.286-6.422-9.657-6.422-16.11 0-6.61 2.136-12.1 6.405-16.467 4.269-4.367 9.62-6.55 16.06-6.55 6.837 0 12.394 2.183 16.68 6.55 4.282 4.367 6.422 10.135 6.422 17.301l-.043 2.077zm-10.892-8.559c-.719-2.414-2.136-4.38-4.255-5.892-2.12-1.513-4.577-2.27-7.373-2.27-3.035 0-5.703.851-7.993 2.547-1.439 1.064-2.77 2.936-4 5.615h23.621z" fill="#34D186"/><path d="M141.989 83.08c1.387 0 2.573.5 3.567 1.504.993 1 1.485 2.213 1.485 3.64 0 1.406-.492 2.607-1.473 3.598-.98.991-2.153 1.487-3.519 1.487-1.404 0-2.603-.504-3.596-1.517-.994-1.013-1.486-2.239-1.486-3.683 0-1.389.488-2.572 1.473-3.555.98-.983 2.162-1.474 3.549-1.474z" fill="#fff"/></svg>
